!!!SOCIAL_FUNCTION: hand game and ghost dance songs
!!!PDT:	1929
!!!LING_GROUP: Caddoan
!!!LANG: Non-Tone
!!!REG: Oklahoma
!!!COM: Anon.
!!!OTL: Ghost Dance Song (b)
!!!ODT: <1920//
!!!MPN: Horse Chief [Spotted Horse Chief]
!!!MLC: Pawnee, Oklahoma, United States of America
!! Song was recorded either 1919 or 1920.
!!!AGN: monody
!!!SOCIAL_FUNCTION2: Ghost dance
!!!AMT: simple duple
!!!RWG: Transcribed pitches, durations, and meters are only approximate.
!! Drum not recorded
**kern
*ICvox
*Imale
*clefF4
*k[b-e-a-d-]
*M2/4
*MM88
=1-
8c
8c
16c
16r
8B-
=2
8B-
8A-
8A-
8r
=3
8c
8c
16c
16r
8B-
=4
8B-
8A-
8A-
8r
=5
8B-
8B-
16B-
16r
8B-
=6
8B-
8A-
8A-
8r
=7
8B-
8B-
16B-
16r
8B-
=8
8B-
8A-
8A-
8r
=9
8F
8F
16F
16r
8F
=10
8F
8F
8F
8r
=11
8F
8F
16F
16r
8F
=12
8F
8F
8F
8r
==
*-
!!!HAO:    The four songs next [this, the preceding, and the following two] were also
!!!HAO: said to be Ghost dance songs, used in the dances incident to a hand game.
!!!HTX: [no free translation]
!!!CNT: Pawnee
!!!TXO: Pawnee
!!!OCY: United States
!!!OCL: Frances Densmore
!!!YOR: Frances Densmore, "Pawnee Music"
!!!YOR: Bulletin 93, page 82, No. 54
!!!PPR: Smithsonian Institution, Bureau of American Ethnology
!!!PPR: Government Printing Office
!!!PDT: 1926
!!!PPP: Washington, DC, United States of America
!!!YEC: Electronic Copyright 2000 David Huron
!!!YER: September 2000
!!!YEN: United States of America
!!!ENC: David Huron
!!!RDT: September 4, 2000
!!!EEV: Release 1.0
!!!AIN: vox
